svgs/espn.svg

<svg width="192" height="192" viewBox="0 0 192 192" fill="none" xmlns="http://www.w3.org/2000/svg">
<path d="M30.4087 85.0345L21.7375 163.34C21.344 166.893 24.1259 170 27.7011 170H148.128C151.186 170 153.755 167.7 154.091 164.66L156.929 139.033C157.323 135.48 154.541 132.373 150.966 132.373H85.4148C81.7646 132.373 78.9602 129.141 79.4747 125.527L80.2662 119.968C80.6872 117.011 83.2193 114.814 86.2063 114.814H154.239C157.297 114.814 159.866 112.513 160.202 109.474L162.762 86.3553C163.156 82.8018 160.374 79.6949 156.799 79.6949H36.3723C33.3141 79.6949 30.7453 81.995 30.4087 85.0345Z" stroke="black" stroke-width="12"/>
<path d="M164.211 22H43.8031C40.7744 22 38.2206 24.2572 37.8485 27.2629L34.5029 54.2903C34.0599 57.8691 36.8513 61.0274 40.4574 61.0274H160.866C163.895 61.0274 166.448 58.7702 166.82 55.7645L170.166 28.7371C170.609 25.1583 167.818 22 164.211 22Z" stroke="black" stroke-width="12"/>
</svg>

<svg xmlns="http://www.w3.org/2000/svg" width="192" height="192" fill="none" viewBox="0 0 192 192"><path stroke="#000" stroke-width="12" d="m30.409 85.034-8.671 78.306A6 6 0 0 0 27.7 170h120.427a6 6 0 0 0 5.963-5.34l2.838-25.627a6 6 0 0 0-5.963-6.66H85.415c-3.65 0-6.455-3.232-5.94-6.846l.791-5.559a6 6 0 0 1 5.94-5.154h68.033a6 6 0 0 0 5.963-5.34l2.56-23.119a6 6 0 0 0-5.963-6.66H36.372a6 6 0 0 0-5.963 5.34ZM164.211 22H43.803a6 6 0 0 0-5.954 5.263L34.502 54.29a6 6 0 0 0 5.954 6.737h120.409a6 6 0 0 0 5.954-5.263l3.346-27.027A6 6 0 0 0 164.211 22Z"/></svg>
